X:1
T:Liden Kirsten
T:Liden Kirsten
T:Vilhelm Krag
T:Agathe Backer Grøndahl, Op. 67, No. 9
C:Agathe Backer Grøndahl, Op. 67, No. 9
%%score [ 1 2 ( 3 4 ) 5 ]
L:1/8
Q:1/4=120
M:4/4
K:F
V:1 treble nm="Soprano"
V:2 treble nm="Alto"
V:3 treble-8 nm="Tenor"
V:4 treble-8 
V:5 bass nm="Bass"
V:1
"^Semplice."!mf! F F | F2 F F c2 F2 | d4 c2 (BA) | B2 (AG) A2 G F | (G2 A) F G2 F F | %5
w: Li- den|Kir- sten hun sad saa|sil- de, mens _|Gjø- gen _ gol i den|grøn- * ne Skov, li- den|
 F2 F2 c2 F F |!>(! (d3 c)!>)! B2 A G | c2 (BA)!<(! G2 A B!<)! | B2 A G A2 (GF) | %9
w: Kir- sten nyn- ned en|Vi- * se, i- mens|hun sit _ Bru- de- lin|vov, i- mens hun sit _|
"^ten."!>(! c4 A2 F2!>)! | G4 z2!mf!"^a tempo" F F | F2 F F c2 F F | d4 c2 (BA) | B2 A G A2 G F | %14
w: Bru- de- lin|vov. Li- den|Kir- sten hun sad ved sit|Vind- ve og _|saa paa sin Ring, _ sin|
 (G2 A) F G2 F F | F2 F2 c2 F F |!>(! d3 c!>)! B2 (AG) | c2 B A!<(! G2 (AB)!<)! | %18
w: RIng _ af Guld, skot- tet|ned- ad, ned- ad sit|sor- te Skjørt og _|smil- te saa tan- ke- *|
 B2 (AG)!<(! A2 G F!<)! |"^ten." (c4!>(! A2) F2!>)! | G4 z2!mf!"^a tempo" F F | F2 F2 c2 F F | %22
w: fuld, og _ smil- te saa|tan- * ke-|fuld. Li- den|Kir- sten lag- de sit|
 d2 d d c2 (BA) | B2 (AG) A2 G F | G2 A F G2 F2 |"^poco a poco dim." F2 F2 c2 F F | (d3 c) B2 z2 | %27
w: Ho- ved til Ro paa _|Ar- mens _ sne- vi- de,|sne- hvi- de Lin, og|Hæg- gen duf- ted, mens|Kir- * sten|
"^ten." !>!c2 B A G2 A B | B2 z2 z4 |"^morendo" E2 F F F2 E F | %30
w: drøm- te om Kjæ- re- sten|sin,|drøm- te om Kjæ- re- sten|
"^rit." !fermata!F4 z2"^a tempo"!p! F F | F2 F2 c2 F F | d3 d c2 (BA) | B2 (AG) A2 G F | %34
w: sin. Li- den|Kir- sten lø- ste sit|gu- le Haar og _|gik til _ Ro i sin|
 (G2 AF) G2"^sempre dim. e rit. al Fine" F F | F2 F2 c2 F F | d3 c B2 z2 | z2 (BA) G2 (AB) | %38
w: Ko- * * ve, Li- den|Kir- sten fol- det de|Hæn- der smaa,|mens _ Gjø- gen _|
 B2 z2 z4 |"^morendo" E2 F F F2 (EF |!pp! F8- | F6) |] %42
w: gol,|gol ud- i Sko- * *|ve.|_|
V:2
 z2 | z4 z2!mf! F2 | (F2 E2) F2 F2 | D2 E2 (F2 C2) | D4 E2 D B, | C2 B,2 _E4 |!>(! D6!>)! =E2 | %7
w: |saa|sil- * de, mens|Gjø- gen gol _|i Skov, li- den|Kir- sten nyn-|ned, mens|
 F2 G2!<(! F2 E2!<)! | F2 C4 D2 |!>(! F4 F2 F2!>)! | E4 z4 | z4 z2!mf! F2 | (F2 E2) F2 F2 | %13
w: hun sit Bru- de-|lin vov, sit|Bru- de- lin|vov.|ved|Vind- * ve og|
 D2 E2 F2 C2 | D4 E2 D B, | C2 B,2 _E4 |!>(! D6!>)! E2 | F2 G2!<(! F2 E2!<)! | F2 C4!<(! D2!<)! | %19
w: saa sin RIng _|af Guld, skot- tet|ned- ad, ned-|ad og|smil- te tan- ke-|fuld, _ saa|
 F6!>(! F2!>)! | E4 z4 | z4 z2!mf! F2- | F2 E2 F4 | D2 E2 F2 C2 | D4 E2 (DB,) | %25
w: tan- ke-|fuld.|Ho-|* ved paa|Ar- mens sne- hvi-|de Lin, og _|
"^poco a poco dim." C2 B,2 _E4 | D4 D2 (AG) | F2 G2 F2 E2 | F2 A G A2 GF |"^morendo" C2 C D C4 | %30
w: Hag- gen duf-|ted, Kir- sten _|drøm- * te om|Kjæ- re- sten sin, hun _|drøm- te om Kjæ-|
 =B,2 _B,2 !fermata!A,2 z2 | z4 z2!p! F2- | F2 E2 F4 | D2 E2 F2 C2 | %34
w: re- sten sin.|Gu-|* le Haar,|gik til Ro i|
 D4 E2"^sempre dim. e rit. al Fine" D B, | C2 B,2 _E4 | D4 D2 (AG) | c2 G2 F2 E2 | B2 A G A2 (GF) | %39
w: Ko- ve, Li- den|Kir- sten fol-|det Hæn- der _|smaa, mens Gjø- gen|gol ud- i Sko- ve, _|
 C2 (CD) C4 |!pp! (=B,4 _B,4) | A,6 |] %42
w: gol ud- * i|Sko- *|ve.|
V:3
!mf! d c | c2 B2 A2 (Bc) | (d2 B2) A2 d2 | G2 c2 F4- | F2 F2 E2 F2 | F4 A4 | %6
w: Li- den|Kir- sten sad saa _|sil- * de, mens|Gjø- gen gol|_ i Skov, hun|nyn- ned|
!>(! (F2 ^F2)!>)! G2 _d2 | c2 d2!<(! (c4!<)! | F2) G2 F2 B2 |!>(! c4 c2 =B2!>)! | c4 z2!mf! d B | %11
w: Vi- * se mens|hun sit Bru-|* de- lin, sit|Bru- de- lin|vov. Li- den|
 c2 B2 A2 B c | (d2 B2) A2 d2 | G2 c2 F4- | F2 F2 E2 F2 | F4 A4 |!>(! (F2 ^F2)!>)! G2 _d2 | %17
w: Kir- sten sad ved sit|Vind- * ve og|saa sin Ring|_ af Guld, hun|skot- ted|ned- * ad og|
 c2 =d2!<(! c4!<)! | F2 G2!<(! F2 B2!<)! | c6!>(! =B2!>)! | c4 z2!mf! d B | c2 B2 A2 (Bc) | %22
w: smil- te tan-|* ke- fuld, saa|tan- ke-|fuld. Li- den|Kir- sten lag- de _|
 d2 B2 A2 d2 | G2 c2 F4 | F4 E2 F2 |"^poco a poco dim." F4 A4 | F2 ^F2 G2 [_de]2 | [cf]2 d2 c4 | %28
w: Ho- * ved paa|Ar- mens hvi-|de LIn, og|Hæg- gen|duf- ted, Kir- sten|drøm- te om|
 A2 c4 d2 |"^morendo" G2 A2 G4 | !fermata!F6!p! d B | c2 B2 A2 (Bc) | d2 B2 A2 d2 | G2 c2 F2 F2 | %34
w: Kjæ- re- sten|Kjæ- re- sten|sin. Li- den|Kir- sten lø- ste _|gu- le Haar og|gik til Ro i|
 F4 E2"^sempre dim. e rit. al Fine" F2 | F4 A4 | (F2 ^F2 G2) [_de]2 | [cf]2 d2 c2 c2 | %38
w: Ko- ve, Hun|fol- det|Hæn- * * der|smaa, mens Gjø- gen|
 [df]2 [Gc]2 [Fc]2 [Fd]2 | G2 A2 G4 |!pp! (d4 _d4) | c6 |] %42
w: gol i Sko- ve,|gol ud- i|Sko- *|ve.|
V:4
 x2 | x8 | x8 | x8 | x8 | x8 | x8 | x8 | x8 | x8 | x8 | x8 | x8 | x8 | x8 | x8 | x8 | x8 | x8 | %19
w: |||||||||||||||||||
 x8 | x8 | x8 | x8 | x8 | x8 | x8 | x8 | x8 | F2 G2 F4 | x8 | x8 | x8 | x8 | x8 | x8 | x8 | x8 | %37
w: |||||||||Kjæ- re- sten|||||||||
 x8 | x8 | x8 | x8 | x6 |] %42
w: |||||
V:5
!mf! B, A, | A,2 G,2 F,2 (G,A,) | (B,2 G,2) A,2 z2 | z4 F,2 A,,2 | B,,2 =B,,2 C,2 _B,, G,, | %5
w: Li- den|Kir- sten sad saa _|sil- * de,|Gjø- gen|gol i Skov, li- den|
 A,,2 G,,2 F,,2 G,, A,, |!>(! (B,,2 A,,2)!>)! G,,2 B,2 | A,2 B,2!<(! C2 C,2!<)! | %8
w: Kir- sten nyn- ned en|Vi- * se mens|hun sit Bru- de-|
 (D,2 E,2) F,2 B,2 |!>(! A,4 F,2 D,2!>)! | C,4 z2!mf! B, G, | A,2 G,2 F,2 G, A, | %12
w: lin _ vov, sit|Bru- de- lin|vov. Li- den|Kir- sten sad ved sit|
 (B,2 G,2) A,2 z2 | z4 F,2 A,,2 | B,,2 =B,,2 C,2 _B,, G,, | A,,2 G,,2 F,,2 G,, A,, | %16
w: Vind- * ve|saa sin|Ring af Guld, skot- ted|ned- ad, ned- ad sit|
!>(! B,,2 A,,2!>)! G,,2 B,2 | (A,2 B,2!<(! C2) C,2!<)! | D,2 E,2!<(! F,2 B,2!<)! | %19
w: sor- te Skjørt og|smil- * * te|tan- ke- fuld, saa|
 (A,4!>(! F,2) D,2!>)! | C,4 z2!mf! B, G, | A,2 G,2 F,2 (G,A,) | B,2 G,2 A,2 z2 | z4 F,2 A,,2 | %24
w: tan- * ke-|fuld. Li- den|Kir- sten lag- de _|Ho- * ved|paa sne-|
 B,,2 =B,,2 C,2 (_B,,G,,) |"^poco a poco dim." A,,2 G,,2 F,,2 (G,,A,,) | (B,,2 A,,2 G,,2) B,2 | %27
w: hvi- de Lin, og _|Hæg- gen duf- ted _|Kir- * * sten|
 A,2 B,2 C2 C,2 | D,2 E,2 F,2 B,,2 |"^morendo" B,,2 A,, B,, C,4 | D,2 _D,2 !fermata!C,2!p! B, G, | %31
w: drøm- * te om|Kjæ- re- sten, hun|drøm- te om Kjæ-|re- sten sin. Li- den|
 A,2 G,2 F,2 (G,A,) | B,2 G,2 A,2 z2 | z4 F,2 A,,2 | %34
w: Kir- sten lø- ste _|gu- le Haar|I sin|
 (B,,2 =B,,2) C,2"^sempre dim. e rit. al Fine" _B,, G,, | A,,2 G,,2 F,,2 (G,,A,,) | %36
w: Ko- * ve, Li- den|Kir- sten fol- ded _|
 (B,,2 A,,2 G,,2) B,2 | A,2 B,2 C2 C,2 | D,2 E,2 F,2 B,,2 | B,,2 A,, B,, C,4 |!pp! [F,,F,]8- | %41
w: Hæn- * * der|smaa, mens Gjø- gen|gol i Sko- ve,|gol ud- i Sko-|ve.|
 [F,,F,]6 |] %42
w: _|

